X:660
T:
N:»Engelska»,
S:efter föresjungning av »Nymanskan» i Burs.
R:kadrilj
O:Gotland, Burs
M:2/4
L:1/16
K:F
A2de fed^c|defg a2a2|A2de f2ed|d^cec A2A2|G2de fed^c|defg a2d'2|a3g
fed^c|^c2d2 d2 z2::f2c2 fagf|e2c2 egfe|d2A2 dfed|^c2A^c e2a2|f2c2 fagf|e2c2
egfe|f2d2 fed^c|^c2d2 d2 z2:|

